X:86
T:Dublin Boy
M:6/8
Q:1/8=300
K:G
%%MIDI channel 1
%%MIDI program 72
%%MIDI transpose 8
%%MIDI grace 1/8
%%MIDI ratio 3 1
D|G3 BAB|GBd Tg2e|dBG GED|ABA FED|G3 BAB|GBd Tg2e|dBG A2A|BGG G2::
d|dBd Tg2e|dBd Tg2e|dBG GED|ABA FED|G3 BAB|GBd Tg2e|dBG A2A|BGG G2:|

